X: 373
T: Miss H Scott's Strathspey
C: by J Pringle
B: John Pringle "Collection of Reels Strathspeys & Jigs", 1801 p.37#3
Z: 2011 John Chambers <jc:trillian.mit.edu>
R: strathspey
M: C
L: 1/8
K: F
V: 1
(B/c/) |\
c<Af>A ~G>AB>d | c<AF>c d2Tdf | c<Af>A ~G>AB>d | cd/e/ f>d {B}A2A :|
c |\
f<ag<a f>cAF | f<ac>a {a}g2ga | f<ac>A d>efd | cA (c/B/A/G/) F2Fc/e/ |
f<ag<a f>cAF | G<ac<a {a}g2~gf/g/ | a>fcA ~d>efd | e<gc>e f2f |]
V: 2 clef=bass middle=d
z | f2f2 c2c2 | f2a2 b2B2 | f2f2 c2c2 | f2f2 f2f :|
z | [a2f2][a2f2] [a2f2][a2f2] | [a2f2][a2f2] [g2c2][g2c2] | [a2f2][a2f2] b2B2 | c2C2 F2F2 |
    [a2f2][a2f2] [a2f2][a2f2] | [a2f2][a2f2] [g2c2][g2c2] | f2a2 b2B2 | c'2c2 f2f |]

%%sep 2 1 500

